rospo-dark/16x16/actions/boundingbox_top_left.svg

<svg height="16" viewBox="0 0 16 16" width="16" xmlns="http://www.w3.org/2000/svg"><path d="m5 0c-.167.000103-.3339.00858163-.5.02539063-.16741.01661-.3320006.04150875-.4941406.07421875-.01392.0028-.0271357.00686562-.0410156.00976562-.3042001.06461-.6017219.15746375-.8886719.27734375-.00762.0032-.0158375.0046125-.0234375.0078125l-.015625.0078125c-.27747.11957-.5435319.26404063-.7949219.43164063-.01628.0108-.0346412.01830687-.0507813.02929687-.2479.17012005-.4799593.36231875-.6933593.57421875-.0148.0146-.0302219.0281688-.0449219.0429688-.2017.2051-.3853281.4273625-.54882812.6640624-.02328001.0333001-.04978563.0637563-.07226563.0976563-.15239.2333-.28502437.478875-.39648437.734375-.01927001.0433-.04052376.0849062-.05859376.1289063-.10779.2643999-.19273624.5375062-.25390624.8164062-.01167001.0529-.02515625.1046031-.03515625.1582031-.01348001.0759-.02515626.1521157-.03515625.2285157-.01186001.0855999-.02375.1709125-.03125.2578124-.01338.1442-.02060438.2887938-.02148438.4335938.001886.2644.02478638.5282625.06835938.7890625.00688999.0429.01152925.0862063.01953125.1289063.04710999.2487999.11305562.4936218.19726562.7324218.0118.0336.02461937.0663094.03710937.0996094.08974.2424.19813876.477525.32421876.703125.00865999.0153.01854374.0297219.02734374.0449219.13172.2283.28131563.4456906.44726568.6503906.0041999.0051.0076187.010525.0117187.015625.1677.203.3512281.3924063.5488281.5664063.0222.0196999.0439063.0392937.0664063.0585937.199.1721.4111656.3281969.6347656.4667969.0119.0073.0251094.0123312.0371094.0195312.4859.2937 1.0182187.5023875 1.5742187.6171875.0021.0005.0037594.0015531.0058594.0019531v6.1054688h2v-6.1015625c.2234-.0474.4433031-.11.6582031-.1875.0367-.0129.073075-.0253625.109375-.0390625.4201-.159.8168875-.3737719 1.1796875-.6386719.03-.0219.0583906-.0457593.0878906-.0683593.1753-.1328.3417469-.2769407.4980469-.4316407.1607-.1621.3101656-.3349781.4472657-.5175781.01895-.02503.0362074-.0507719.0546874-.0761719.1227401-.16734.2349275-.3421575.3359376-.5234375.01004-.01818.0194968-.0363775.0292968-.0546875.11193-.20644.2091757-.420515.2910156-.640625.0008-.002.0012472-.0039593.0019532-.0058593l.0039062-.0117188c.08178-.22676.1470525-.4591325.1953125-.6953125.0006-.0026.0014112-.0051125.0019531-.0078125h6.1054688v-2h-6.1015625c-.0564-.2684-.134775-.5317094-.234375-.7871094-.01017-.02658-.0186969-.0537281-.0292969-.0800781-.09389-.23061-.2048712-.4538887-.3320312-.6679687-.0285-.04836-.0578507-.0953382-.0878906-.1425782-.12882-.20548-.2724376-.4013075-.4296876-.5859375-.0223499-.02591-.0474525-.0487887-.0703124-.0742187-.1552101-.17288-.32228-.334725-.5-.484375-.0265801-.02236-.0510951-.0465594-.078125-.0683594-.18966-.15108-.3900594-.28815625-.5996094-.41015625-.04609-.02723-.0916819-.05431812-.1386719-.08007813-.20995-.11576999-.4279637-.21629124-.6523437-.30078124-.0438131-.01636001-.0884566-.02976188-.1328126-.04492188-.2313599-.08043-.4683343-.14375313-.7089843-.18945312-.01382-.0025-.0271657-.0054125-.0410157-.0078125-.28501-.05033-.5738612-.07581488-.8632812-.07617188z" fill="#d3dae3"/></svg>

<?xml version="1.0" encoding="UTF-8" standalone="no"?>
<svg xmlns="http://www.w3.org/2000/svg" width="22" height="22" viewBox="0 0 22 22">
 <defs>
  <style type="text/css" id="current-color-scheme">
   .ColorScheme-Text { color:#d3dae3; } .ColorScheme-Highlight { color:#5294e2; }
  </style>
 </defs>
 <path style="fill:currentColor;opacity:1" class="ColorScheme-Text" transform="translate(3 3)" d="M 5 0 C 4.833 0.000103 4.6661 0.008581625 4.5 0.025390625 C 4.33259 0.042000625 4.1679994 0.066899375 4.0058594 0.099609375 C 3.9919394 0.10240938 3.9787237 0.106475 3.9648438 0.109375 C 3.6606437 0.173985 3.3631219 0.26683875 3.0761719 0.38671875 C 3.0685519 0.38991875 3.0603344 0.39133125 3.0527344 0.39453125 L 3.0371094 0.40234375 C 2.7596394 0.52191375 2.4935775 0.66638438 2.2421875 0.83398438 C 2.2259075 0.84478438 2.2075463 0.85229125 2.1914062 0.86328125 C 1.9435062 1.0334013 1.7114469 1.2256 1.4980469 1.4375 C 1.4832469 1.4521 1.467825 1.4656688 1.453125 1.4804688 C 1.251425 1.6855688 1.0677969 1.9078313 0.90429688 2.1445312 C 0.88101687 2.1778313 0.85451125 2.2082875 0.83203125 2.2421875 C 0.67964125 2.4754875 0.54700688 2.7210625 0.43554688 2.9765625 C 0.41627687 3.0198625 0.39502312 3.0614687 0.37695312 3.1054688 C 0.26916312 3.3698687 0.18421688 3.642975 0.12304688 3.921875 C 0.11137687 3.974775 0.097890625 4.0264781 0.087890625 4.0800781 C 0.074410625 4.1559781 0.062734375 4.2321938 0.052734375 4.3085938 C 0.040874375 4.3941937 0.028984375 4.4795063 0.021484375 4.5664062 C 0.008104375 4.7106062 0.00088 4.8552 0 5 C 0.001886 5.2644 0.024786375 5.5282625 0.068359375 5.7890625 C 0.075249375 5.8319625 0.079888625 5.8752688 0.087890625 5.9179688 C 0.13500062 6.1667687 0.20094625 6.4115906 0.28515625 6.6503906 C 0.29695625 6.6839906 0.30977562 6.7167 0.32226562 6.75 C 0.41200562 6.9924 0.52040438 7.227525 0.64648438 7.453125 C 0.65514437 7.468425 0.66502812 7.4828469 0.67382812 7.4980469 C 0.80554812 7.7263469 0.95514375 7.9437375 1.1210938 8.1484375 C 1.1252937 8.1535375 1.1287125 8.1589625 1.1328125 8.1640625 C 1.3005125 8.3670625 1.4840406 8.5564688 1.6816406 8.7304688 C 1.7038406 8.7501687 1.7255469 8.7697625 1.7480469 8.7890625 C 1.9470469 8.9611625 2.1592125 9.1172594 2.3828125 9.2558594 C 2.3947125 9.2631594 2.4079219 9.2681906 2.4199219 9.2753906 C 2.9058219 9.5690906 3.4381406 9.7777781 3.9941406 9.8925781 C 3.9962406 9.8930781 3.9979 9.8941312 4 9.8945312 L 4 16 L 6 16 L 6 9.8984375 C 6.2234 9.8510375 6.4433031 9.7884375 6.6582031 9.7109375 C 6.6949031 9.6980375 6.7312781 9.685575 6.7675781 9.671875 C 7.1876781 9.512875 7.5844656 9.2981031 7.9472656 9.0332031 C 7.9772656 9.0113031 8.0056562 8.9874438 8.0351562 8.9648438 C 8.2104562 8.8320438 8.3769031 8.6879031 8.5332031 8.5332031 C 8.6939031 8.3711031 8.8433687 8.198225 8.9804688 8.015625 C 8.9994188 7.990595 9.0166762 7.9648531 9.0351562 7.9394531 C 9.1578963 7.7721131 9.2700837 7.5972956 9.3710938 7.4160156 C 9.3811338 7.3978356 9.3905906 7.3796381 9.4003906 7.3613281 C 9.5123206 7.1548881 9.6095663 6.9408131 9.6914062 6.7207031 C 9.6922062 6.7187031 9.6926534 6.7167438 9.6933594 6.7148438 L 9.6972656 6.703125 C 9.7790456 6.476365 9.8443181 6.2439925 9.8925781 6.0078125 C 9.8931781 6.0052125 9.8939893 6.0027 9.8945312 6 L 16 6 L 16 4 L 9.8984375 4 C 9.8420375 3.7316 9.7636625 3.4682906 9.6640625 3.2128906 C 9.6538925 3.1863106 9.6453656 3.1591625 9.6347656 3.1328125 C 9.5408756 2.9022025 9.4298944 2.6789238 9.3027344 2.4648438 C 9.2742344 2.4164838 9.2448837 2.3695056 9.2148438 2.3222656 C 9.0860238 2.1167856 8.9424062 1.9209581 8.7851562 1.7363281 C 8.7628063 1.7104181 8.7377037 1.6875394 8.7148438 1.6621094 C 8.5596337 1.4892294 8.3925638 1.3273844 8.2148438 1.1777344 C 8.1882637 1.1553744 8.1637487 1.131175 8.1367188 1.109375 C 7.9470588 0.958295 7.7466594 0.82121875 7.5371094 0.69921875 C 7.4910194 0.67198875 7.4454275 0.64490063 7.3984375 0.61914062 C 7.1884875 0.50337063 6.9704738 0.40284938 6.7460938 0.31835938 C 6.7022807 0.30199937 6.6576372 0.2885975 6.6132812 0.2734375 C 6.3819213 0.1930075 6.1449469 0.12968437 5.9042969 0.083984375 C 5.8904769 0.081484375 5.8771312 0.078571875 5.8632812 0.076171875 C 5.5782712 0.025841875 5.28942 0.000357 5 0 z"/>
</svg>
